img/svg/video-icon3.svg

<svg class="sc-gEvEer hSTeNi mx-icon" focusable="false" width="" height="" fill="currentColor" aria-hidden="true" viewBox="0 0 48 48" data-icon="IconSecurity"><path d="M8.01953 10.7604L23.9038 7.54981C23.9688 7.53668 24.0357 7.5366 24.1006 7.54955L39.9742 10.7143C40.2229 10.7639 40.3951 10.9918 40.3749 11.2446L38.7981 30.9021C38.7853 31.061 38.6976 31.2043 38.5618 31.2879L24.2577 40.093C24.0975 40.1916 23.8955 40.192 23.7349 40.0939L9.42155 31.3482L8.63946 32.6281L9.42155 31.3482C9.2849 31.2647 9.1965 31.1208 9.18381 30.9611L7.62016 11.2901C7.60012 11.0379 7.77158 10.8105 8.01953 10.7604Z" stroke="currentColor" fill="none" stroke-width="3"></path><path d="M32.6178 19.9447C33.2036 19.3589 33.2036 18.4091 32.6178 17.8234C32.032 17.2376 31.0823 17.2376 30.4965 17.8234L23.2641 25.0558C23.0688 25.251 22.7522 25.251 22.557 25.0558L19.0216 21.5204C18.4358 20.9346 17.486 20.9346 16.9003 21.5204C16.3145 22.1062 16.3145 23.0559 16.9003 23.6417L22.2035 28.945C22.5941 29.3355 23.2273 29.3355 23.6178 28.945L32.6178 19.9447Z" fill="currentColor"></path></svg>

<svg class="sc-gEvEer hSTeNi mx-icon" fill="currentColor" aria-hidden="true" viewBox="0 0 48 48" data-icon="IconSecurity"><path d="M8.02 10.76l15.884-3.21a.5.5 0 01.197 0l15.873 3.164a.5.5 0 01.4.53l-1.576 19.658a.5.5 0 01-.236.386l-14.304 8.805a.5.5 0 01-.523 0L9.422 31.349l-.783 1.28.783-1.28a.5.5 0 01-.238-.387L7.62 11.291a.5.5 0 01.4-.53z" stroke="currentColor" fill="none" stroke-width="3"/><path d="M32.618 19.945a1.5 1.5 0 10-2.122-2.122l-7.232 7.233a.5.5 0 01-.707 0l-3.535-3.536a1.5 1.5 0 10-2.122 2.122l5.303 5.303a1 1 0 001.415 0l9-9z"/></svg>
